X:1
T:Duke of Buccleuch [3], The
T:Duke of Buccleuch [3], The
T:Nathaniel Gow (1763-1831)
C:Nathaniel Gow (1763-1831)
L:1/8
M:4/4
K:A
V:1 treble 
V:1
 C | (A,A) A>F GB TB>c | (AA) (ca) e3 (e/d/) | c(a g) (f/e/)(d/c/) B F F>B | (A/G/)F/>E/ FG A3 :| %5
 c>def (.efga) | ec ca |{f} e2 (d/c/).B/.A/ | c>def (ef)(ga) | bB TB>c{Bc} d2 Tc>B | %10
 (c>d)ef (efga) | ec ca{f} e2 (d/c/)(TB/A/) | fDDf (e/c/)(a/g/) (f/e/)(d/c/) | dFB>A (AGFE) | %14
 (E<A) A>F (GB) TB>c | (.A.A) ca e3 (f/g/) | aecA GB B>c | F(G/A/) BG A3 || %18

